; G-Code generated by Simplify3D(R) Version 4.0.0
; Sep 8, 2017 at 11:45:13 AM
; Settings Summary
;   processName,Process1
;   applyToModels,6757f2cd-f7e9-485d-a9ee-78b84daf75c6,6757f2cd-f7e9-485d-a9ee-78b84daf75c6(2)
;   profileName,20% infill fast (modified)
;   profileVersion,2017-07-24 11:14:46
;   baseProfile,Anet A8 (modified)
;   printMaterial,PLA
;   printQuality,High
;   printExtruders,
;   extruderName,Primary Extruder
;   extruderToolheadNumber,0
;   extruderDiameter,0.4
;   extruderAutoWidth,0
;   extruderWidth,0.4
;   extrusionMultiplier,0.9
;   extruderUseRetract,1
;   extruderRetractionDistance,2.5
;   extruderExtraRestartDistance,0
;   extruderRetractionZLift,0
;   extruderRetractionSpeed,1800
;   extruderUseCoasting,0
;   extruderCoastingDistance,0.2
;   extruderUseWipe,0
;   extruderWipeDistance,5
;   primaryExtruder,0
;   layerHeight,0.1
;   topSolidLayers,4
;   bottomSolidLayers,4
;   perimeterOutlines,2
;   printPerimetersInsideOut,1
;   startPointOption,2
;   startPointOriginX,0
;   startPointOriginY,0
;   sequentialIslands,0
;   spiralVaseMode,0
;   firstLayerHeightPercentage,90
;   firstLayerWidthPercentage,100
;   firstLayerUnderspeed,0.5
;   useRaft,0
;   raftExtruder,0
;   raftTopLayers,3
;   raftBaseLayers,2
;   raftOffset,3
;   raftSeparationDistance,0.14
;   raftTopInfill,100
;   aboveRaftSpeedMultiplier,0.3
;   useSkirt,1
;   skirtExtruder,0
;   skirtLayers,2
;   skirtOutlines,2
;   skirtOffset,4
;   usePrimePillar,0
;   primePillarExtruder,999
;   primePillarWidth,12
;   primePillarLocation,7
;   primePillarSpeedMultiplier,1
;   useOozeShield,0
;   oozeShieldExtruder,999
;   oozeShieldOffset,2
;   oozeShieldOutlines,1
;   oozeShieldSidewallShape,1
;   oozeShieldSidewallAngle,30
;   oozeShieldSpeedMultiplier,1
;   infillExtruder,0
;   internalInfillPattern,Rectilinear
;   externalInfillPattern,Rectilinear
;   infillPercentage,100
;   outlineOverlapPercentage,25
;   infillExtrusionWidthPercentage,100
;   minInfillLength,5
;   infillLayerInterval,1
;   internalInfillAngles,45,-45
;   overlapInternalInfillAngles,0
;   externalInfillAngles,45,-45
;   generateSupport,0
;   supportExtruder,0
;   supportInfillPercentage,40
;   supportExtraInflation,0.2
;   supportBaseLayers,0
;   denseSupportExtruder,0
;   denseSupportLayers,0
;   denseSupportInfillPercentage,50
;   supportLayerInterval,1
;   supportHorizontalPartOffset,0.3
;   supportUpperSeparationLayers,1
;   supportLowerSeparationLayers,1
;   supportType,0
;   supportGridSpacing,4
;   maxOverhangAngle,45
;   supportAngles,0
;   temperatureName,Primary Extruder,Heated Bed
;   temperatureNumber,0,0
;   temperatureSetpointCount,1,1
;   temperatureSetpointLayers,1,1
;   temperatureSetpointTemperatures,205,60
;   temperatureStabilizeAtStartup,1,1
;   temperatureHeatedBed,0,1
;   temperatureRelayBetweenLayers,0,0
;   temperatureRelayBetweenLoops,0,0
;   fanLayers,1,2
;   fanSpeeds,0,100
;   blipFanToFullPower,0
;   adjustSpeedForCooling,1
;   minSpeedLayerTime,15
;   minCoolingSpeedSlowdown,20
;   increaseFanForCooling,0
;   minFanLayerTime,45
;   maxCoolingFanSpeed,100
;   increaseFanForBridging,0
;   bridgingFanSpeed,100
;   use5D,1
;   relativeEdistances,0
;   allowEaxisZeroing,1
;   independentExtruderAxes,0
;   includeM10123,0
;   stickySupport,1
;   applyToolheadOffsets,0
;   gcodeXoffset,0
;   gcodeYoffset,0
;   gcodeZoffset,0
;   overrideMachineDefinition,1
;   machineTypeOverride,0
;   strokeXoverride,220
;   strokeYoverride,220
;   strokeZoverride,240
;   originOffsetXoverride,0
;   originOffsetYoverride,0
;   originOffsetZoverride,0
;   homeXdirOverride,-1
;   homeYdirOverride,-1
;   homeZdirOverride,-1
;   flipXoverride,1
;   flipYoverride,-1
;   flipZoverride,1
;   toolheadOffsets,0,0|0,0|0,0|0,0|0,0|0,0
;   overrideFirmwareConfiguration,1
;   firmwareTypeOverride,RepRap (Marlin/Repetier/Sprinter)
;   GPXconfigOverride,r2
;   baudRateOverride,115200
;   overridePrinterModels,1
;   printerModelsOverride
;   startingGcode,M85 S30; activate 30-second idle timeout,M280 P0 S160 ; bltouch reset alarm,M280 P0 S90 ; bltouch drags pin up,G28 ; home all axes,G29 ; autolevel,G1 X0 Y20 Z0.2 F3000 ; get ready to prime,G92 E0 ; reset extrusion distance,G1 X200 E20 F600 ; prime nozzle
;   layerChangeGcode,
;   retractionGcode,
;   toolChangeGcode,
;   endingGcode,M104 S0 ; turn off extruder,M140 S0 ; turn off bed,G1 X0 Y200 F1000 ; prepare for part removal,M84 ; disable motors,M280 P0 S90 ; drags BLTouch pin up,M107 ; fan off,M85 S0; deactivate idle timeout
;   exportFileFormat,gcode
;   celebration,0
;   celebrationSong,Random Song
;   postProcessing,
;   defaultSpeed,6000
;   outlineUnderspeed,0.5
;   solidInfillUnderspeed,0.8
;   supportUnderspeed,0.8
;   rapidXYspeed,4800
;   rapidZspeed,1002
;   minBridgingArea,50
;   bridgingExtraInflation,0
;   bridgingExtrusionMultiplier,1
;   bridgingSpeedMultiplier,1
;   useFixedBridgingAngle,0
;   fixedBridgingAngle,0
;   applyBridgingToPerimeters,0
;   filamentDiameters,1.75|1.75|1.75|1.75|1.75|1.75
;   filamentPricesPerKg,46|46|46|46|46|46
;   filamentDensities,1.25|1.25|1.25|1.25|1.25|1.25
;   useMinPrintHeight,0
;   minPrintHeight,0
;   useMaxPrintHeight,0
;   maxPrintHeight,0
;   useDiaphragm,0
;   diaphragmLayerInterval,20
;   robustSlicing,1
;   mergeAllIntoSolid,0
;   onlyRetractWhenCrossingOutline,1
;   retractBetweenLayers,1
;   useRetractionMinTravel,0
;   retractionMinTravel,3
;   retractWhileWiping,0
;   onlyWipeOutlines,1
;   avoidCrossingOutline,0
;   maxMovementDetourFactor,3
;   toolChangeRetractionDistance,12
;   toolChangeExtraRestartDistance,-0.5
;   toolChangeRetractionSpeed,600
;   externalThinWallType,0
;   internalThinWallType,2
;   thinWallAllowedOverlapPercentage,10
;   singleExtrusionMinLength,1
;   singleExtrusionMinPrintingWidthPercentage,50
;   singleExtrusionMaxPrintingWidthPercentage,200
;   singleExtrusionEndpointExtension,0.2
;   horizontalSizeCompensation,0
G90
M82
M106 S0
M140 S60
M190 S60
M104 S205 T0
M109 S205 T0
M85 S30; activate 30-second idle timeout
M280 P0 S160 ; bltouch reset alarm
M280 P0 S90 ; bltouch drags pin up
G28 ; home all axes
G29 ; autolevel
G1 X0 Y20 Z0.2 F3000 ; get ready to prime
G92 E0 ; reset extrusion distance
G1 X200 E20 F600 ; prime nozzle
G92 E0
G1 E-2.5000 F1800
G1 Z0.090 F1002
; process Process1
; layer 1, Z = 0.090
T0
; tool H0.100 W0.400
; skirt
G1 X98.695 Y87.773 F4800
G1 E0.0000 F540
G92 E0
G1 X98.702 Y87.764 E0.0002 F3000
G1 X99.322 Y87.055 E0.0143
G1 X99.330 Y87.046 E0.0144
G1 X99.444 Y86.925 E0.0169
G1 X99.452 Y86.916 E0.0171
G1 X100.125 Y86.257 E0.0312
G1 X100.133 Y86.249 E0.0314
G1 X100.257 Y86.137 E0.0339
G1 X100.266 Y86.129 E0.0341
G1 X100.987 Y85.523 E0.0482
G1 X100.996 Y85.516 E0.0483
G1 X101.128 Y85.414 E0.0508
G1 X101.137 Y85.407 E0.0510
G1 X101.904 Y84.859 E0.0651
G1 X101.913 Y84.853 E0.0653
G1 X102.053 Y84.761 E0.0678
G1 X102.063 Y84.755 E0.0680
G1 X102.869 Y84.268 E0.0820
G1 X102.879 Y84.262 E0.0822
G1 X103.025 Y84.182 E0.0847
G1 X103.036 Y84.176 E0.0849
G1 X103.877 Y83.753 E0.0990
G1 X103.888 Y83.748 E0.0992
G1 X104.040 Y83.679 E0.1017
G1 X104.050 Y83.675 E0.1018
G1 X104.922 Y83.319 E0.1159
G1 X104.933 Y83.314 E0.1161
G1 X105.090 Y83.257 E0.1186
G1 X105.101 Y83.254 E0.1188
G1 X105.998 Y82.966 E0.1329
G1 X106.009 Y82.963 E0.1331
G1 X106.170 Y82.918 E0.1356
G1 X106.181 Y82.915 E0.1357
G1 X107.098 Y82.698 E0.1498
G1 X107.109 Y82.695 E0.1500
G1 X107.273 Y82.663 E0.1525
G1 X107.284 Y82.661 E0.1527
G1 X108.215 Y82.516 E0.1668
G1 X108.227 Y82.514 E0.1669
G1 X108.392 Y82.495 E0.1694
G1 X108.404 Y82.493 E0.1696
G1 X109.343 Y82.420 E0.1837
G1 X109.355 Y82.420 E0.1839
G1 X109.521 Y82.413 E0.1864
G1 X109.533 Y82.413 E0.1866
G1 X110.475 Y82.413 E0.2007
G1 X110.487 Y82.413 E0.2008
G1 X110.653 Y82.420 E0.2033
G1 X110.665 Y82.420 E0.2035
G1 X111.604 Y82.493 E0.2176
G1 X111.616 Y82.495 E0.2178
G1 X111.781 Y82.514 E0.2203
G1 X111.793 Y82.516 E0.2204
G1 X112.724 Y82.661 E0.2345
G1 X112.735 Y82.663 E0.2347
G1 X112.899 Y82.695 E0.2372
G1 X112.910 Y82.698 E0.2374
G1 X113.827 Y82.915 E0.2515
G1 X113.838 Y82.918 E0.2517
G1 X113.999 Y82.963 E0.2542
G1 X114.010 Y82.966 E0.2543
G1 X114.907 Y83.254 E0.2684
G1 X114.918 Y83.257 E0.2686
G1 X115.075 Y83.314 E0.2711
G1 X115.085 Y83.319 E0.2713
G1 X115.958 Y83.675 E0.2854
G1 X115.968 Y83.679 E0.2856
G1 X116.120 Y83.748 E0.2880
G1 X116.131 Y83.753 E0.2882
G1 X116.972 Y84.176 E0.3023
G1 X116.983 Y84.182 E0.3025
G1 X117.129 Y84.262 E0.3050
G1 X117.139 Y84.268 E0.3052
G1 X117.945 Y84.755 E0.3193
G1 X117.955 Y84.761 E0.3194
G1 X118.094 Y84.853 E0.3219
G1 X118.104 Y84.859 E0.3221
G1 X118.870 Y85.407 E0.3362
G1 X118.880 Y85.414 E0.3364
G1 X119.012 Y85.516 E0.3389
G1 X119.021 Y85.523 E0.3391
G1 X119.742 Y86.129 E0.3532
G1 X119.751 Y86.137 E0.3533
G1 X119.875 Y86.249 E0.3558
G1 X119.883 Y86.257 E0.3560
G1 X120.556 Y86.916 E0.3701
G1 X120.564 Y86.925 E0.3703
G1 X120.678 Y87.046 E0.3728
G1 X120.686 Y87.055 E0.3729
G1 X121.305 Y87.764 E0.3870
G1 X121.313 Y87.773 E0.3872
G1 X121.418 Y87.903 E0.3897
G1 X121.425 Y87.912 E0.3899
G1 X121.987 Y88.668 E0.4040
G1 X121.994 Y88.677 E0.4042
G1 X122.088 Y88.815 E0.4067
G1 X122.095 Y88.825 E0.4068
G1 X122.597 Y89.622 E0.4209
G1 X122.603 Y89.632 E0.4211
G1 X122.686 Y89.776 E0.4236
G1 X122.692 Y89.786 E0.4238
G1 X123.131 Y90.620 E0.4379
G1 X123.136 Y90.630 E0.4381
G1 X123.208 Y90.781 E0.4405
G1 X123.213 Y90.791 E0.4407
G1 X123.586 Y91.656 E0.4548
G1 X123.591 Y91.667 E0.4550
G1 X123.651 Y91.822 E0.4575
G1 X123.655 Y91.833 E0.4577
G1 X123.960 Y92.725 E0.4718
G1 X123.963 Y92.736 E0.4719
G1 X124.011 Y92.896 E0.4744
G1 X124.014 Y92.907 E0.4746
G1 X124.249 Y93.819 E0.4887
G1 X124.252 Y93.830 E0.4889
G1 X124.287 Y93.993 E0.4914
G1 X124.289 Y94.005 E0.4916
G1 X124.453 Y94.932 E0.5057
G1 X124.455 Y94.944 E0.5058
G1 X124.477 Y95.109 E0.5083
G1 X124.479 Y95.121 E0.5085
G1 X124.570 Y96.058 E0.5226
G1 X124.571 Y96.070 E0.5228
G1 X124.581 Y96.237 E0.5253
G1 X124.581 Y96.248 E0.5254
G1 X124.599 Y97.190 E0.5395
G1 X124.599 Y97.202 E0.5397
G1 X124.596 Y97.368 E0.5422
G1 X124.596 Y97.380 E0.5424
G1 X124.541 Y98.320 E0.5565
G1 X124.540 Y98.332 E0.5567
G1 X124.524 Y98.498 E0.5592
G1 X124.522 Y98.510 E0.5593
G1 X124.395 Y99.443 E0.5734
G1 X124.393 Y99.454 E0.5736
G1 X124.364 Y99.619 E0.5761
G1 X124.362 Y99.630 E0.5763
G1 X124.162 Y100.551 E0.5904
G1 X124.160 Y100.562 E0.5905
G1 X124.118 Y100.724 E0.5930
G1 X124.115 Y100.735 E0.5932
G1 X123.845 Y101.637 E0.6073
G1 X123.841 Y101.648 E0.6075
G1 X123.787 Y101.806 E0.6100
G1 X123.783 Y101.817 E0.6102
G1 X123.444 Y102.696 E0.6243
G1 X123.440 Y102.707 E0.6244
G1 X123.374 Y102.860 E0.6269
G1 X123.369 Y102.870 E0.6271
G1 X122.962 Y103.720 E0.6412
G1 X122.957 Y103.731 E0.6414
G1 X122.879 Y103.878 E0.6439
G1 X122.874 Y103.889 E0.6441
G1 X122.403 Y104.704 E0.6581
G1 X122.397 Y104.714 E0.6583
G1 X122.308 Y104.855 E0.6608
G1 X122.301 Y104.865 E0.6610
G1 X121.769 Y105.642 E0.6751
G1 X121.762 Y105.651 E0.6753
G1 X121.662 Y105.785 E0.6778
G1 X121.655 Y105.794 E0.6779
G1 X121.064 Y106.528 E0.6920
G1 X121.056 Y106.537 E0.6922
G1 X120.947 Y106.662 E0.6947
G1 X120.939 Y106.671 E0.6949
G1 X120.292 Y107.356 E0.7090
G1 X120.284 Y107.364 E0.7092
G1 X120.165 Y107.481 E0.7117
G1 X120.157 Y107.489 E0.7118
G1 X119.459 Y108.122 E0.7259
G1 X119.450 Y108.130 E0.7261
G1 X119.322 Y108.237 E0.7286
G1 X119.313 Y108.244 E0.7288
G1 X118.569 Y108.821 E0.7429
G1 X118.559 Y108.828 E0.7430
G1 X118.424 Y108.925 E0.7455
G1 X118.414 Y108.932 E0.7457
G1 X117.627 Y109.450 E0.7598
G1 X117.617 Y109.456 E0.7600
G1 X117.474 Y109.542 E0.7625
G1 X117.464 Y109.548 E0.7627
G1 X116.640 Y110.003 E0.7768
G1 X116.637 Y110.004 E0.7768
G1 X116.972 Y110.172 E0.7824
G1 X116.983 Y110.178 E0.7826
G1 X117.129 Y110.258 E0.7851
G1 X117.139 Y110.264 E0.7852
G1 X117.945 Y110.751 E0.7993
G1 X117.955 Y110.757 E0.7995
G1 X118.094 Y110.849 E0.8020
G1 X118.104 Y110.855 E0.8022
G1 X118.870 Y111.403 E0.8163
G1 X118.880 Y111.410 E0.8165
G1 X119.012 Y111.512 E0.8190
G1 X119.021 Y111.520 E0.8191
G1 X119.742 Y112.125 E0.8332
G1 X119.751 Y112.133 E0.8334
G1 X119.875 Y112.245 E0.8359
G1 X119.883 Y112.253 E0.8361
G1 X120.556 Y112.912 E0.8502
G1 X120.564 Y112.921 E0.8504
G1 X120.678 Y113.042 E0.8529
G1 X120.686 Y113.051 E0.8530
G1 X121.305 Y113.760 E0.8671
G1 X121.313 Y113.769 E0.8673
G1 X121.418 Y113.899 E0.8698
G1 X121.425 Y113.908 E0.8700
G1 X121.987 Y114.664 E0.8841
G1 X121.994 Y114.673 E0.8842
G1 X122.088 Y114.811 E0.8867
G1 X122.095 Y114.821 E0.8869
G1 X122.597 Y115.618 E0.9010
G1 X122.603 Y115.628 E0.9012
G1 X122.687 Y115.772 E0.9037
G1 X122.692 Y115.782 E0.9039
G1 X123.131 Y116.616 E0.9180
G1 X123.136 Y116.626 E0.9181
G1 X123.208 Y116.777 E0.9206
G1 X123.213 Y116.787 E0.9208
G1 X123.586 Y117.652 E0.9349
G1 X123.591 Y117.663 E0.9351
G1 X123.651 Y117.819 E0.9376
G1 X123.655 Y117.829 E0.9377
G1 X123.960 Y118.721 E0.9518
G1 X123.963 Y118.732 E0.9520
G1 X124.011 Y118.892 E0.9545
G1 X124.014 Y118.903 E0.9547
G1 X124.249 Y119.815 E0.9688
G1 X124.252 Y119.826 E0.9690
G1 X124.287 Y119.989 E0.9715
G1 X124.289 Y120.001 E0.9716
G1 X124.453 Y120.928 E0.9857
G1 X124.455 Y120.940 E0.9859
G1 X124.477 Y121.105 E0.9884
G1 X124.479 Y121.117 E0.9886
G1 X124.570 Y122.054 E1.0027
G1 X124.571 Y122.066 E1.0029
G1 X124.581 Y122.233 E1.0053
G1 X124.581 Y122.244 E1.0055
G1 X124.599 Y123.186 E1.0196
G1 X124.599 Y123.198 E1.0198
G1 X124.596 Y123.364 E1.0223
G1 X124.596 Y123.376 E1.0225
G1 X124.541 Y124.316 E1.0366
G1 X124.540 Y124.328 E1.0367
G1 X124.524 Y124.494 E1.0392
G1 X124.522 Y124.506 E1.0394
G1 X124.395 Y125.439 E1.0535
G1 X124.393 Y125.451 E1.0537
G1 X124.364 Y125.615 E1.0562
G1 X124.362 Y125.626 E1.0564
G1 X124.162 Y126.547 E1.0705
G1 X124.160 Y126.558 E1.0706
G1 X124.118 Y126.720 E1.0731
G1 X124.115 Y126.731 E1.0733
G1 X123.845 Y127.633 E1.0874
G1 X123.841 Y127.644 E1.0876
G1 X123.787 Y127.802 E1.0901
G1 X123.783 Y127.813 E1.0902
G1 X123.444 Y128.692 E1.1043
G1 X123.440 Y128.703 E1.1045
G1 X123.374 Y128.856 E1.1070
G1 X123.369 Y128.867 E1.1072
G1 X122.962 Y129.716 E1.1213
G1 X122.957 Y129.727 E1.1215
G1 X122.879 Y129.874 E1.1240
G1 X122.874 Y129.885 E1.1241
G1 X122.403 Y130.700 E1.1382
G1 X122.397 Y130.710 E1.1384
G1 X122.308 Y130.851 E1.1409
G1 X122.301 Y130.861 E1.1411
G1 X121.769 Y131.638 E1.1552
G1 X121.762 Y131.648 E1.1553
G1 X121.662 Y131.781 E1.1578
G1 X121.655 Y131.790 E1.1580
G1 X121.064 Y132.524 E1.1721
G1 X121.056 Y132.533 E1.1723
G1 X120.947 Y132.658 E1.1748
G1 X120.939 Y132.667 E1.1750
G1 X120.292 Y133.352 E1.1891
G1 X120.284 Y133.360 E1.1892
G1 X120.165 Y133.477 E1.1917
G1 X120.157 Y133.485 E1.1919
G1 X119.459 Y134.118 E1.2060
G1 X119.450 Y134.126 E1.2062
G1 X119.322 Y134.233 E1.2087
G1 X119.313 Y134.241 E1.2089
G1 X118.569 Y134.818 E1.2230
G1 X118.559 Y134.824 E1.2231
G1 X118.424 Y134.921 E1.2256
G1 X118.414 Y134.928 E1.2258
G1 X117.627 Y135.446 E1.2399
G1 X117.617 Y135.452 E1.2401
G1 X117.474 Y135.538 E1.2426
G1 X117.464 Y135.544 E1.2427
G1 X116.639 Y135.999 E1.2568
G1 X116.629 Y136.004 E1.2570
G1 X116.480 Y136.079 E1.2595
G1 X116.470 Y136.084 E1.2597
G1 X115.610 Y136.475 E1.2738
G1 X115.600 Y136.480 E1.2740
G1 X115.445 Y136.543 E1.2765
G1 X115.434 Y136.547 E1.2767
G1 X114.551 Y136.868 E1.2907
G1 X114.540 Y136.872 E1.2909
G1 X114.381 Y136.923 E1.2934
G1 X114.370 Y136.926 E1.2936
G1 X113.463 Y137.179 E1.3077
G1 X113.451 Y137.182 E1.3078
G1 X113.289 Y137.220 E1.3103
G1 X113.278 Y137.223 E1.3105
G1 X112.353 Y137.404 E1.3246
G1 X112.342 Y137.406 E1.3248
G1 X112.177 Y137.432 E1.3273
G1 X112.165 Y137.434 E1.3275
G1 X111.230 Y137.543 E1.3416
G1 X111.218 Y137.544 E1.3417
G1 X111.052 Y137.557 E1.3442
G1 X111.040 Y137.558 E1.3444
G1 X110.099 Y137.594 E1.3585
G1 X110.087 Y137.594 E1.3587
G1 X109.921 Y137.594 E1.3612
G1 X109.909 Y137.594 E1.3613
G1 X108.968 Y137.558 E1.3754
G1 X108.956 Y137.557 E1.3756
G1 X108.790 Y137.544 E1.3781
G1 X108.778 Y137.543 E1.3783
G1 X107.842 Y137.434 E1.3924
G1 X107.831 Y137.432 E1.3926
G1 X107.666 Y137.406 E1.3951
G1 X107.655 Y137.404 E1.3952
G1 X106.730 Y137.223 E1.4093
G1 X106.719 Y137.220 E1.4095
G1 X106.557 Y137.182 E1.4120
G1 X106.545 Y137.179 E1.4122
